static/fa/svgs/solid/dog.svg

<svg xmlns="http://www.w3.org/2000/svg" viewBox="0 0 576 512"><!--! Font Awesome Free 6.1.1 by @fontawesome - https://fontawesome.com License - https://fontawesome.com/license/free (Icons: CC BY 4.0, Fonts: SIL OFL 1.1, Code: MIT License) Copyright 2022 Fonticons, Inc.--><path d="M332.7 19.85C334.6 8.395 344.5 0 356.1 0c7.5 0 14.5 3.52 19 9.502L392 32h52.1c12.7 0 25 5.06 34 14.06L496 64h56c13.3 0 24 10.75 24 24v24c0 44.2-35.8 80-80 80h-69.3l-5.1 30.5-112-64 23.1-138.65zM448 64c-8.8 0-16 7.16-16 16s7.2 16 16 16 16-7.16 16-16-7.2-16-16-16zm-32 192.1V480c0 17.7-14.3 32-32 32h-32c-17.7 0-32-14.3-32-32V364.8c-24.9 12.3-51.2 19.2-80 19.2-28.8 0-56-6.9-80-19.2V480c0 17.7-14.3 32-32 32H96c-17.67 0-32-14.3-32-32V249.8c-28.77-10.9-51.36-35.3-59.164-66.5l-3.88-15.5c-4.287-17.2 6.138-34.6 23.284-39.7 17.14-3.4 34.52 7 38.81 24.1l3.88 15.6c3.56 14.2 16.36 23.3 31.04 23.3H303.8l112.2 65z"/></svg>

<svg xmlns="http://www.w3.org/2000/svg" viewBox="0 0 576 512"><!--! Font Awesome Free 6.1.1 by @fontawesome - https://fontawesome.com License - https://fontawesome.com/license/free (Icons: CC BY 4.0, Fonts: SIL OFL 1.1, Code: MIT License) Copyright 2022 Fonticons, Inc. --><path d="M332.7 19.85C334.6 8.395 344.5 0 356.1 0C363.6 0 370.6 3.52 375.1 9.502L392 32H444.1C456.8 32 469.1 37.06 478.1 46.06L496 64H552C565.3 64 576 74.75 576 88V112C576 156.2 540.2 192 496 192H426.7L421.6 222.5L309.6 158.5L332.7 19.85zM448 64C439.2 64 432 71.16 432 80C432 88.84 439.2 96 448 96C456.8 96 464 88.84 464 80C464 71.16 456.8 64 448 64zM416 256.1V480C416 497.7 401.7 512 384 512H352C334.3 512 320 497.7 320 480V364.8C295.1 377.1 268.8 384 240 384C211.2 384 184 377.1 160 364.8V480C160 497.7 145.7 512 128 512H96C78.33 512 64 497.7 64 480V249.8C35.23 238.9 12.64 214.5 4.836 183.3L.9558 167.8C-3.331 150.6 7.094 133.2 24.24 128.1C41.38 124.7 58.76 135.1 63.05 152.2L66.93 167.8C70.49 182 83.29 191.1 97.97 191.1H303.8L416 256.1z"/></svg>
